assets/src/edit-story/icons/radio-selected.svg

<svg fill="none" height="24" viewBox="0 0 24 24" width="24" xmlns="http://www.w3.org/2000/svg"><path clip-rule="evenodd" d="m12.0005 1.9989c-5.52001 0-10.00001 4.48-10.00001 10s4.48 10 10.00001 10c5.52 0 10-4.48 10-10s-4.48-10-10-10zm-.0001 18.0002c-4.42001 0-8-3.58-8-8 0-4.42001 3.57999-8.00001 8-8.00001 4.42 0 8 3.58 8 8.00001 0 4.42-3.58 8-8 8zm-5.00001-8c0-2.76144 2.23858-5.00001 5.00001-5.00001 2.7614 0 5 2.23857 5 5.00001 0 2.7614-2.2386 5-5 5-2.76143 0-5.00001-2.2386-5.00001-5z" fill="#1a73e8" fill-rule="evenodd"/></svg>

<svg width="24" height="24" viewBox="0 0 24 24" fill="none" xmlns="http://www.w3.org/2000/svg">
  <path fill-rule="evenodd" clip-rule="evenodd" d="M12.0005 1.9989C6.48049 1.9989 2.00049 6.4789 2.00049 11.9989C2.00049 17.5189 6.48049 21.9989 12.0005 21.9989C17.5205 21.9989 22.0005 17.5189 22.0005 11.9989C22.0005 6.4789 17.5205 1.9989 12.0005 1.9989ZM12.0004 19.9991C7.58039 19.9991 4.0004 16.4191 4.0004 11.9991C4.0004 7.57909 7.58039 3.99909 12.0004 3.99909C16.4204 3.99909 20.0004 7.57909 20.0004 11.9991C20.0004 16.4191 16.4204 19.9991 12.0004 19.9991ZM7.00039 11.9991C7.00039 9.23766 9.23897 6.99909 12.0004 6.99909C14.7618 6.99909 17.0004 9.23766 17.0004 11.9991C17.0004 14.7605 14.7618 16.9991 12.0004 16.9991C9.23897 16.9991 7.00039 14.7605 7.00039 11.9991Z" fill="#1A73E8"/>
</svg>
